svgs/sharp-light/circle-info.svg

<svg xmlns="http://www.w3.org/2000/svg" viewBox="0 0 512 512"><!--! Font Awesome Pro 6.6.0 by @fontawesome - https://fontawesome.com License - https://fontawesome.com/license (Commercial License) Copyright 2024 Fonticons, Inc. --><path d="M256 32a224 224 0 1 1 0 448 224 224 0 1 1 0-448zm0 480A256 256 0 1 0 256 0a256 256 0 1 0 0 512zM192 352l0 32 16 0 96 0 16 0 0-32-16 0-32 0 0-112 0-16-16 0-40 0-16 0 0 32 16 0 24 0 0 96-32 0-16 0zm88-168l0-48-48 0 0 48 48 0z"/></svg>

<svg xmlns="http://www.w3.org/2000/svg" viewBox="0 0 512 512"><!--! Font Awesome Pro 6.4.0 by @fontawesome - https://fontawesome.com License - https://fontawesome.com/license (Commercial License) Copyright 2023 Fonticons, Inc. --><path d="M256 32a224 224 0 1 1 0 448 224 224 0 1 1 0-448zm0 480A256 256 0 1 0 256 0a256 256 0 1 0 0 512zM192 352v32h16 96 16V352H304 272V240 224H256 216 200v32h16 24v96H208 192zm88-168V136H232v48h48z"/></svg>
